poi/svg/1706.svg

<?xml version="1.0" encoding="UTF-8" standalone="no"?>
<svg
   xmlns:dc="http://purl.org/dc/elements/1.1/"
   xmlns:cc="http://creativecommons.org/ns#"
   xmlns:rdf="http://www.w3.org/1999/02/22-rdf-syntax-ns#"
   xmlns:svg="http://www.w3.org/2000/svg"
   xmlns="http://www.w3.org/2000/svg"
   xmlns:sodipodi="http://sodipodi.sourceforge.net/DTD/sodipodi-0.dtd"
   xmlns:inkscape="http://www.inkscape.org/namespaces/inkscape"
   inkscape:version="1.0 (4035a4fb49, 2020-05-01)"
   sodipodi:docname="1706.svg"
   id="svg20"
   version="1.2"
   viewBox="0 0 42.519639 42.519639"
   height="14.999999mm"
   width="14.999999mm">
  <metadata
     id="metadata24">
    <rdf:RDF>
      <cc:Work
         rdf:about="">
        <dc:format>image/svg+xml</dc:format>
        <dc:type
           rdf:resource="http://purl.org/dc/dcmitype/StillImage" />
        <dc:title>Qt SVG Document</dc:title>
      </cc:Work>
    </rdf:RDF>
  </metadata>
  <sodipodi:namedview
     inkscape:current-layer="svg20"
     inkscape:window-maximized="0"
     inkscape:window-y="0"
     inkscape:window-x="0"
     inkscape:cy="28.346482"
     inkscape:cx="28.346482"
     inkscape:zoom="5.8410537"
     showgrid="false"
     id="namedview22"
     inkscape:window-height="480"
     inkscape:window-width="1034"
     inkscape:pageshadow="2"
     inkscape:pageopacity="0"
     guidetolerance="10"
     gridtolerance="10"
     objecttolerance="10"
     borderopacity="1"
     bordercolor="#666666"
     pagecolor="#ffffff" />
  <title
     id="title2">Qt SVG Document</title>
  <desc
     id="desc4">Generated with Qt</desc>
  <defs
     id="defs6" />
  <g
     transform="translate(5.25984,5.25984)"
     id="g18"
     stroke-linejoin="bevel"
     stroke-linecap="square"
     fill-rule="evenodd"
     stroke-width="1"
     stroke="#000000"
     fill="none">
    <g
       id="g10"
       font-style="normal"
       font-weight="400"
       font-size="7.8px"
       font-family="'MS Shell Dlg 2'"
       stroke="none"
       fill-opacity="1"
       fill="#b75800">
      <path
         id="path8"
         d="M 37.2598,16 C 37.2598,27.7415 27.7415,37.2598 16,37.2598 4.25851,37.2598 -5.25984,27.7415 -5.25984,16 -5.25984,4.25851 4.25851,-5.25984 16,-5.25984 27.7415,-5.25984 37.2598,4.25851 37.2598,16"
         fill-rule="evenodd"
         vector-effect="non-scaling-stroke" />
    </g>
    <g
       id="g14"
       font-style="normal"
       font-weight="400"
       font-size="7.8px"
       font-family="'MS Shell Dlg 2'"
       transform="translate(16,12.0315)"
       stroke="none"
       fill-opacity="1"
       fill="#ffffff">
      <path
         id="path12"
         d="m 12.6938,13.1802 c -0.7418,0.4899 -1.6866,0.9168 -2.83442,1.2807 -1.00782,0.322 -2.29908,0.6194 -3.87378,0.8924 -1.57471,0.2729 -3.49585,0.4094 -5.763432,0.4094 -2.267578,0 -4.174728,-0.1365 -5.721438,-0.4094 -1.54671,-0.273 -2.80997,-0.5704 -3.78979,-0.8924 -1.14774,-0.3639 -2.06464,-0.7908 -2.75054,-1.2807 0.7559,-1.7217 1.5993,-3.31391 2.53008,-4.77664 0.93083,-1.46272 1.84066,-2.80997 2.72949,-4.04174 0.88884,-1.23177 1.70418,-2.34807 2.44605,-3.34888 0.74186,-1.0008143 1.28776,-1.893148 1.63769,-2.677 0.11198,-0.19597 0.23096,-0.27295 0.35693,-0.23096 0.12598,0.04199 0.25546,0.14347 0.38843,0.30444 0.13298,0.16097 0.24846,0.31844 0.34644,0.47242 0.09798,0.153967 0.16097,0.24495 0.18896,0.272945 0.08399,0.181966 0.16447,0.678874 0.24146,1.490723 0.07698,0.811852 0.12947,1.770672 0.15747,2.876462 0.027993,1.1058 0.027993,2.26758 0,3.48535 -0.028,1.21778 -0.10498,2.30258 -0.23096,3.25438 -0.62988,0.056 -1.44523,0.182 -2.44604,0.3779 -1.00082,0.196 -1.97364,0.4305 -2.91846,0.7034 -0.94482,0.273 -1.75317,0.5739 -2.42505,0.9028 -0.67187,0.329 -1.00779,0.6404 -1.00779,0.9344 0.79783,0.3079 1.71466,0.5809 2.75047,0.8188 0.88183,0.224 1.95263,0.4164 3.2124,0.5774 1.25976,0.161 2.6945,0.2415 4.304198,0.2415 1.665692,0 3.072432,-0.0805 4.220212,-0.2415 1.14779,-0.161 2.07862,-0.3534 2.79248,-0.5774 0.82585,-0.2379 1.49772,-0.5109 2.01563,-0.8188 0,-0.294 -0.32894,-0.5984 -0.98682,-0.9134 C 7.60579,11.9519 6.80444,11.651 5.85962,11.364 4.91479,11.0771 3.93148,10.8356 2.90967,10.6396 1.88786,10.4437 1.03402,10.3177 0.348145,10.2617 0.292155,9.8278 0.271159,9.11743 0.285156,8.13062 0.299154,7.1438 0.341146,6.0765 0.411133,4.92871 0.48112,3.78092 0.561605,2.64714 0.652588,1.52734 0.743571,0.407552 0.817057,-0.49528 0.873047,-1.18115 c 0,-0.028 0.027995,-0.10148 0.083984,-0.22046 0.055989,-0.11898 0.125979,-0.23446 0.209959,-0.34644 0.08399,-0.11198 0.16797,-0.18196 0.25196,-0.20996 0.08398,-0.02799 0.16097,0.04199 0.23095,0.20996 0.05599,0.32194 0.22746,0.67538 0.51441,1.060306 0.28694,0.384928 0.61588,0.808349 0.98681,1.270264 0.37093,0.46191 0.74886,0.94132 1.13379,1.43823 0.38493,0.49691 0.72437,1.01831 1.01831,1.56421 L 5.93311,2.95508 c 0.78385,0.85384 1.51871,1.76017 2.20459,2.71899 0.68587,0.95882 1.31575,1.90365 1.8896,2.83447 0.5739,0.93083 1.0813,1.80566 1.5223,2.62456 0.4409,0.8188 0.8223,1.5012 1.1442,2.0471 M 5.34521,-4.05762 c -0.68587,0.05599 -1.35424,0.06299 -2.00512,0.021 -0.65088,-0.04199 -1.23177,-0.014 -1.74268,0.08398 -0.5109,0.09799 -0.948321,0.33244 -1.312254,0.70337 -0.363932,0.37093 -0.601888,1.00432 -0.713867,1.90015 0,-0.95182 0.129476,-1.69369 0.3884278,-2.22559 0.2589522,-0.5319 0.6123862,-0.93432 1.0603032,-1.20727 0.44792,-0.27295 0.96582,-0.44442 1.55371,-0.51441 0.58789,-0.06998 1.19678,-0.10498 1.82666,-0.10498 0.5459,0 1.02531,-0.13647 1.43823,-0.40942 0.41293,-0.27295 0.83285,-0.5459 1.25977,-0.81885 0.42692,-0.27295 0.88533,-0.46541 1.37524,-0.57739 0.48991,-0.11198 1.0638,-0.028 1.72167,0.25195 0.266,0.15397 0.4619,0.35344 0.5879,0.59839 0.126,0.24495 0.217,0.49341 0.273,0.74536 0.0559,0.30794 0.0699,0.62289 0.0419,0.94483 -0.4619,-0.48991 -0.9273,-0.74187 -1.3962,-0.75586 -0.46891,-0.014 -0.94832,0.06648 -1.43823,0.24145 -0.48991,0.17497 -0.97632,0.39193 -1.45923,0.65088 -0.48291,0.25895 -0.96932,0.41642 -1.45923,0.47241"
         fill-rule="evenodd"
         vector-effect="none" />
    </g>
    <g
       id="g16"
       font-style="normal"
       font-weight="400"
       font-size="7.8px"
       font-family="'MS Shell Dlg 2'"
       stroke="none"
       fill-opacity="1"
       fill="#b75800" />
  </g>
</svg>

<?xml version="1.0" encoding="UTF-8" standalone="no"?>
<svg width="11.2889mm" height="11.2889mm"
 viewBox="0 0 32 32"
 xmlns="http://www.w3.org/2000/svg" xmlns:xlink="http://www.w3.org/1999/xlink"  version="1.2" baseProfile="tiny">
<title>Qt SVG Document</title>
<desc>Generated with Qt</desc>
<defs>
</defs>
<g fill="none" stroke="black" stroke-width="1" fill-rule="evenodd" stroke-linecap="square" stroke-linejoin="bevel" >

<g fill="#b75800" fill-opacity="1" stroke="none" transform="matrix(1,0,0,1,0,0)"
font-family="MS Shell Dlg 2" font-size="7.8" font-weight="400" font-style="normal" 
>
<path vector-effect="non-scaling-stroke" fill-rule="evenodd" d="M37.2598,16 C37.2598,27.7415 27.7415,37.2598 16,37.2598 C4.25851,37.2598 -5.25984,27.7415 -5.25984,16 C-5.25984,4.25851 4.25851,-5.25984 16,-5.25984 C27.7415,-5.25984 37.2598,4.25851 37.2598,16 "/>
</g>

<g fill="#ffffff" fill-opacity="1" stroke="none" transform="matrix(1,0,0,1,16,12.0315)"
font-family="MS Shell Dlg 2" font-size="7.8" font-weight="400" font-style="normal" 
>
<path vector-effect="none" fill-rule="evenodd" d="M12.6938,13.1802 C11.952,13.6701 11.0072,14.097 9.85938,14.4609 C8.85156,14.7829 7.5603,15.0803 5.9856,15.3533 C4.41089,15.6262 2.48975,15.7627 0.222168,15.7627 C-2.04541,15.7627 -3.95256,15.6262 -5.49927,15.3533 C-7.04598,15.0803 -8.30924,14.7829 -9.28906,14.4609 C-10.4368,14.097 -11.3537,13.6701 -12.0396,13.1802 C-11.2837,11.4585 -10.4403,9.86629 -9.50952,8.40356 C-8.57869,6.94084 -7.66886,5.59359 -6.78003,4.36182 C-5.89119,3.13005 -5.07585,2.01375 -4.33398,1.01294 C-3.59212,0.0121257 -3.04622,-0.880208 -2.69629,-1.66406 C-2.58431,-1.86003 -2.46533,-1.93701 -2.33936,-1.89502 C-2.21338,-1.85303 -2.0839,-1.75155 -1.95093,-1.59058 C-1.81795,-1.42961 -1.70247,-1.27214 -1.60449,-1.11816 C-1.50651,-0.964193 -1.44352,-0.87321 -1.41553,-0.845215 C-1.33154,-0.663249 -1.25106,-0.166341 -1.17407,0.645508 C-1.09709,1.45736 -1.0446,2.41618 -1.0166,3.52197 C-0.988607,4.62777 -0.988607,5.78955 -1.0166,7.00732 C-1.0446,8.2251 -1.12158,9.3099 -1.24756,10.2617 C-1.87744,10.3177 -2.69279,10.4437 -3.6936,10.6396 C-4.69442,10.8356 -5.66724,11.0701 -6.61206,11.343 C-7.55688,11.616 -8.36523,11.9169 -9.03711,12.2458 C-9.70898,12.5748 -10.0449,12.8862 -10.0449,13.1802 C-9.24707,13.4881 -8.33024,13.7611 -7.29443,13.999 C-6.4126,14.223 -5.3418,14.4154 -4.08203,14.5764 C-2.82227,14.7374 -1.38753,14.8179 0.222168,14.8179 C1.88786,14.8179 3.2946,14.7374 4.44238,14.5764 C5.59017,14.4154 6.521,14.223 7.23486,13.999 C8.06071,13.7611 8.73258,13.4881 9.25049,13.1802 C9.25049,12.8862 8.92155,12.5818 8.26367,12.2668 C7.60579,11.9519 6.80444,11.651 5.85962,11.364 C4.91479,11.0771 3.93148,10.8356 2.90967,10.6396 C1.88786,10.4437 1.03402,10.3177 0.348145,10.2617 C0.292155,9.8278 0.271159,9.11743 0.285156,8.13062 C0.299154,7.1438 0.341146,6.0765 0.411133,4.92871 C0.48112,3.78092 0.561605,2.64714 0.652588,1.52734 C0.743571,0.407552 0.817057,-0.49528 0.873047,-1.18115 C0.873047,-1.20915 0.901042,-1.28263 0.957031,-1.40161 C1.01302,-1.52059 1.08301,-1.63607 1.16699,-1.74805 C1.25098,-1.86003 1.33496,-1.93001 1.41895,-1.95801 C1.50293,-1.986 1.57992,-1.91602 1.6499,-1.74805 C1.70589,-1.42611 1.87736,-1.07267 2.16431,-0.687744 C2.45125,-0.302816 2.78019,0.120605 3.15112,0.58252 C3.52205,1.04443 3.89998,1.52384 4.28491,2.02075 C4.66984,2.51766 5.00928,3.03906 5.30322,3.58496 L5.93311,2.95508 C6.71696,3.80892 7.45182,4.71525 8.1377,5.67407 C8.82357,6.63289 9.45345,7.57772 10.0273,8.50854 C10.6012,9.43937 11.1086,10.3142 11.5496,11.1331 C11.9905,11.9519 12.3719,12.6343 12.6938,13.1802 M5.34521,-4.05762 C4.65934,-4.00163 3.99097,-3.99463 3.34009,-4.03662 C2.68921,-4.07861 2.10832,-4.05062 1.59741,-3.95264 C1.08651,-3.85465 0.649089,-3.6202 0.285156,-3.24927 C-0.078776,-2.87834 -0.316732,-2.24495 -0.428711,-1.34912 C-0.428711,-2.30094 -0.299235,-3.04281 -0.0402832,-3.57471 C0.218669,-4.10661 0.572103,-4.50903 1.02002,-4.78198 C1.46794,-5.05493 1.98584,-5.2264 2.57373,-5.29639 C3.16162,-5.36637 3.77051,-5.40137 4.40039,-5.40137 C4.94629,-5.40137 5.4257,-5.53784 5.83862,-5.81079 C6.25155,-6.08374 6.67147,-6.35669 7.09839,-6.62964 C7.52531,-6.90259 7.98372,-7.09505 8.47363,-7.20703 C8.96354,-7.31901 9.53743,-7.23503 10.1953,-6.95508 C10.4613,-6.80111 10.6572,-6.60164 10.7832,-6.35669 C10.9092,-6.11174 11.0002,-5.86328 11.0562,-5.61133 C11.1121,-5.30339 11.1261,-4.98844 11.0981,-4.6665 C10.6362,-5.15641 10.1708,-5.40837 9.7019,-5.42236 C9.23299,-5.43636 8.75358,-5.35588 8.26367,-5.18091 C7.77376,-5.00594 7.28735,-4.78898 6.80444,-4.53003 C6.32153,-4.27108 5.83512,-4.11361 5.34521,-4.05762 "/>
</g>

<g fill="#b75800" fill-opacity="1" stroke="none" transform="matrix(1,0,0,1,0,0)"
font-family="MS Shell Dlg 2" font-size="7.8" font-weight="400" font-style="normal" 
>
</g>
</g>
</svg>
